X:127
T:Roast Beef of Old England. JC.127
R:Air
S:John Clare,Poet,Helpston. (1793-1864)
N:Rosbif ? Mais non !
N:Song text exists. See Deacon.
O:England
A:Northamptonshire
Z:vmp.P. Headford
M:6/8
L:1/8
Q:3/8=60
K:D
A|\
ded cde|fdfe2c|d>” qu”ed cBA|BGEA2|!
|d|BGB dcB|AFDB3|efg cBA|” crot”d3AGF|\
GAB cAc|” crot”d3d2|]

